logos/aws-ecs.svg

<?xml version="1.0" encoding="UTF-8"?>
<svg width="256px" height="256px" viewBox="0 0 256 256" version="1.1" xmlns="http://www.w3.org/2000/svg" xmlns:xlink="http://www.w3.org/1999/xlink" preserveAspectRatio="xMidYMid">
    <title>AWS Elastic Container Service (ECS)</title>
    <defs>
        <linearGradient x1="0%" y1="100%" x2="100%" y2="0%" id="linearGradient-1">
            <stop stop-color="#C8511B" offset="0%"></stop>
            <stop stop-color="#FF9900" offset="100%"></stop>
        </linearGradient>
    </defs>
    <g>
        <rect fill="url(#linearGradient-1)" x="0" y="0" width="256" height="256"></rect>
        <path d="M204.8,154.34883 L179.2,138.985637 L179.2,102.400054 C179.2,101.260855 178.5984,100.208055 177.6128,99.6352554 L140.8,78.1632653 L140.8,47.2064794 L204.8,85.0272621 L204.8,154.34883 Z M209.6288,80.444864 L139.2288,38.8448832 C138.2368,38.2592835 137.0176,38.2528835 136.0128,38.8192832 C135.0176,39.3888829 134.4,40.4512822 134.4,41.6000819 L134.4,80.0000643 C134.4,81.1360637 135.0048,82.1888634 135.9872,82.764863 L172.8,104.236853 L172.8,140.800036 C172.8,141.923236 173.392,142.966436 174.3552,143.542435 L206.3552,162.742427 C206.8608,163.046426 207.4304,163.2 208,163.2 C208.544,163.2 209.088,163.062426 209.5776,162.784027 C210.5824,162.217627 211.2,161.152027 211.2,160 L211.2,83.2000627 C211.2,82.0672634 210.6048,81.020864 209.6288,80.444864 L209.6288,80.444864 Z M129.424,213.961603 L54.4,174.076821 L54.4,85.0272621 L118.4,47.2064794 L118.4,78.2432653 L84.6816,99.6992554 C83.76,100.288055 83.2,101.305655 83.2,102.400054 L83.2,156.800029 C83.2,157.993629 83.8656,159.088028 84.9216,159.638428 L127.9712,182.038418 C128.896,182.518418 129.9968,182.521618 130.9184,182.041618 L172.6848,160.460828 L198.3872,175.88482 L129.424,213.961603 Z M206.448,173.254422 L174.448,154.05443 C173.4944,153.484831 172.3168,153.446431 171.3312,153.95843 L129.456,175.593621 L89.6,154.85763 L89.6,104.156853 L123.3184,82.700863 C124.24,82.1120634 124.8,81.0944637 124.8,80.0000643 L124.8,41.6000819 C124.8,40.4512822 124.1856,39.3888829 123.1872,38.8192832 C122.1888,38.2528835 120.9664,38.2592835 119.9712,38.8448832 L49.5712,80.444864 C48.5984,81.020864 48,82.0672634 48,83.2000627 L48,176 C48,177.18082 48.6528,178.26882 49.696,178.825619 L127.9488,220.4256 C128.4192,220.6752 128.9344,220.8 129.4496,220.8 C129.984,220.8 130.5152,220.6656 130.9984,220.4 L206.3488,178.800019 C207.3504,178.24642 207.9776,177.20002 208.000886,176.05762 C208.0192,174.912021 207.4272,173.843221 206.448,173.254422 L206.448,173.254422 Z" fill="#FFFFFF"></path>
    </g>
</svg>

<svg width="256" height="256" xmlns="http://www.w3.org/2000/svg" preserveAspectRatio="xMidYMid">
	<defs>
		<linearGradient x1="0%" y1="100%" x2="100%" y2="0%" id="a">
			<stop stop-color="#C8511B" offset="0%"/>
			<stop stop-color="#F90" offset="100%"/>
		</linearGradient>
	</defs>
	<path fill="url(#a)" d="M0 0h256v256H0z"/>
	<path d="m204.8 154.349-25.6-15.363V102.4c0-1.14-.602-2.192-1.587-2.765L140.8 78.163V47.206l64 37.821v69.322Zm4.829-73.904-70.4-41.6a3.209 3.209 0 0 0-3.216-.026A3.207 3.207 0 0 0 134.4 41.6V80c0 1.136.605 2.189 1.587 2.765l36.813 21.472V140.8c0 1.123.592 2.166 1.555 2.742l32 19.2a3.192 3.192 0 0 0 3.223.042A3.194 3.194 0 0 0 211.2 160V83.2c0-1.133-.595-2.18-1.571-2.755Zm-80.205 133.517L54.4 174.077v-89.05l64-37.82v31.036L84.682 99.7A3.206 3.206 0 0 0 83.2 102.4v54.4c0 1.194.666 2.288 1.722 2.838l43.05 22.4c.924.48 2.025.484 2.946.004l41.767-21.581 25.702 15.424-68.963 38.077Zm77.024-40.708-32-19.2a3.198 3.198 0 0 0-3.117-.096l-41.875 21.636L89.6 154.858v-50.701L123.318 82.7A3.206 3.206 0 0 0 124.8 80V41.6a3.2 3.2 0 0 0-1.613-2.782 3.209 3.209 0 0 0-3.216.026l-70.4 41.6A3.202 3.202 0 0 0 48 83.2V176c0 1.18.653 2.269 1.696 2.826l78.253 41.6a3.2 3.2 0 0 0 3.05-.026l75.35-41.6a3.206 3.206 0 0 0 1.652-2.742 3.21 3.21 0 0 0-1.553-2.804Z" fill="#FFF"/>
</svg>
